Numix-GalliumOS/24/categories/applications-ruby.svg

<?xml version="1.0" encoding="UTF-8" standalone="no"?>
<svg
   xmlns:dc="http://purl.org/dc/elements/1.1/"
   xmlns:cc="http://creativecommons.org/ns#"
   xmlns:rdf="http://www.w3.org/1999/02/22-rdf-syntax-ns#"
   xmlns:svg="http://www.w3.org/2000/svg"
   xmlns="http://www.w3.org/2000/svg"
   xmlns:sodipodi="http://sodipodi.sourceforge.net/DTD/sodipodi-0.dtd"
   xmlns:inkscape="http://www.inkscape.org/namespaces/inkscape"
   width="24"
   height="24"
   viewBox="0 0 24 24"
   id="svg2"
   version="1.1"
   inkscape:version="0.91 r"
   sodipodi:docname="applications-ruby.svg">
  <metadata
     id="metadata36">
    <rdf:RDF>
      <cc:Work
         rdf:about="">
        <dc:format>image/svg+xml</dc:format>
        <dc:type
           rdf:resource="http://purl.org/dc/dcmitype/StillImage" />
        <dc:title />
      </cc:Work>
    </rdf:RDF>
  </metadata>
  <defs
     id="defs34" />
  <sodipodi:namedview
     pagecolor="#ffffff"
     bordercolor="#666666"
     borderopacity="1"
     objecttolerance="10"
     gridtolerance="10"
     guidetolerance="10"
     inkscape:pageopacity="0"
     inkscape:pageshadow="2"
     inkscape:window-width="1920"
     inkscape:window-height="1056"
     id="namedview32"
     showgrid="true"
     inkscape:zoom="16"
     inkscape:cx="13.282791"
     inkscape:cy="16.653751"
     inkscape:window-x="0"
     inkscape:window-y="24"
     inkscape:window-maximized="1"
     inkscape:current-layer="svg2">
    <inkscape:grid
       type="xygrid"
       id="grid4164" />
  </sodipodi:namedview>
  <path
     inkscape:connector-curvature="0"
     id="path6"
     d="M 10.033679,5.6777882 11.816522,10.20209 13.819497,5.0562923"
     style="fill:none;stroke:#de4646;stroke-width:0.34375003;stroke-linecap:round;stroke-linejoin:round;stroke-miterlimit:4;stroke-dasharray:none"
     sodipodi:nodetypes="ccc" />
  <path
     inkscape:connector-curvature="0"
     id="path8"
     d="M 10.033679,5.6778223 6.5736016,10.506581 7.2428473,6.1964307"
     style="fill:none;stroke:#de4646;stroke-width:0.34375003;stroke-linecap:round;stroke-linejoin:round;stroke-miterlimit:4;stroke-dasharray:none"
     sodipodi:nodetypes="ccc" />
  <path
     style="fill:none;stroke:#de4646;stroke-width:0.34375003;stroke-linecap:round;stroke-linejoin:round;stroke-miterlimit:4;stroke-dasharray:none"
     d="M 13.819497,5.0604975 17.787613,9.0480412 16.958922,4.9555245"
     id="path12"
     inkscape:connector-curvature="0"
     sodipodi:nodetypes="ccc" />
  <path
     style="fill:none;stroke:#de4646;stroke-width:0.34375003;stroke-linecap:round;stroke-linejoin:round;stroke-miterlimit:4;stroke-dasharray:none"
     d="m 3.5780975,10.552464 9.6026605,8.4943 -4.1879876,-8.559648 z"
     id="path14"
     inkscape:connector-curvature="0"
     sodipodi:nodetypes="cccc" />
  <path
     style="fill:none;stroke:#de4646;stroke-width:0.34375003;stroke-linecap:round;stroke-linejoin:round;stroke-miterlimit:4;stroke-dasharray:none"
     d="M 3.5784238,10.552464 7.228627,6.1964307 10.033679,5.6778223 8.9927704,10.487116 Z"
     id="path16"
     inkscape:connector-curvature="0"
     sodipodi:nodetypes="ccccc" />
  <path
     style="fill:none;stroke:#de4646;stroke-width:0.34375003;stroke-linecap:round;stroke-linejoin:round;stroke-miterlimit:4;stroke-dasharray:none"
     d="m 13.819497,5.0563264 3.139425,-0.1006477 3.462969,3.3429939 -5.528783,1.5725096"
     id="path18"
     inkscape:connector-curvature="0"
     sodipodi:nodetypes="cccc" />
  <path
     style="fill:none;stroke:#de4646;stroke-width:0.34375003;stroke-linecap:round;stroke-linejoin:round;stroke-miterlimit:4;stroke-dasharray:none"
     d="M 10.033548,5.6778223 13.819497,5.0563264 14.893108,9.8711822 8.9927704,10.487292"
     id="path20"
     inkscape:connector-curvature="0"
     sodipodi:nodetypes="cccc" />
  <path
     style="fill:none;stroke:#de4646;stroke-width:0.34375003;stroke-linecap:round;stroke-linejoin:round;stroke-miterlimit:4;stroke-dasharray:none"
     d="M 13.180758,19.046936 20.421891,8.2986726 14.893108,9.8708582 Z"
     id="path22"
     inkscape:connector-curvature="0"
     sodipodi:nodetypes="cccc" />
  <path
     style="fill:none;stroke:#de4646;stroke-width:0.17187501;stroke-linecap:round;stroke-linejoin:round;stroke-miterlimit:4;stroke-dasharray:none"
     d="M 17.787613,9.0480832 13.180758,19.046936"
     id="path26"
     inkscape:connector-curvature="0"
     sodipodi:nodetypes="cc" />
  <path
     style="fill:none;stroke:#de4646;stroke-width:0.17187501;stroke-linecap:round;stroke-linejoin:round;stroke-miterlimit:4;stroke-dasharray:none"
     d="m 11.816304,10.20209 1.364454,8.844846"
     id="path28"
     inkscape:connector-curvature="0"
     sodipodi:nodetypes="cc" />
  <path
     style="fill:none;stroke:#de4646;stroke-width:0.17187501;stroke-linecap:round;stroke-linejoin:round;stroke-miterlimit:4;stroke-dasharray:none"
     d="m 6.5734929,10.506581 6.6072651,8.540355"
     id="path30"
     inkscape:connector-curvature="0"
     sodipodi:nodetypes="cc" />
</svg>

<svg xmlns="http://www.w3.org/2000/svg" viewBox="0 0 24 24">
 <path d="m 10.03 5.678 1.783 4.524 2 -5.146" style="stroke-dasharray:none;fill:none;stroke-miterlimit:4;stroke:#de4646;stroke-linecap:round;stroke-linejoin:round;stroke-width:0.344"/>
 <path d="m 10.03 5.678 -3.46 4.829 0.669 -4.31" style="stroke-dasharray:none;fill:none;stroke-miterlimit:4;stroke:#de4646;stroke-linecap:round;stroke-linejoin:round;stroke-width:0.344"/>
 <path d="m 13.819 5.06 3.968 3.988 -0.829 -4.093" style="stroke-dasharray:none;fill:none;stroke-miterlimit:4;stroke:#de4646;stroke-linecap:round;stroke-linejoin:round;stroke-width:0.344"/>
 <path d="m 3.578 10.552 9.603 8.494 -4.188 -8.56 z" style="stroke-dasharray:none;fill:none;stroke-miterlimit:4;stroke:#de4646;stroke-linecap:round;stroke-linejoin:round;stroke-width:0.344"/>
 <path d="m 3.578 10.552 3.65 -4.356 2.805 -0.519 -1.041 4.809" style="stroke-dasharray:none;fill:none;stroke-miterlimit:4;stroke:#de4646;stroke-linecap:round;stroke-linejoin:round;stroke-width:0.344"/>
 <path d="m 13.819 5.056 3.139 -0.101 3.463 3.343 -5.529 1.573" style="stroke-dasharray:none;fill:none;stroke-miterlimit:4;stroke:#de4646;stroke-linecap:round;stroke-linejoin:round;stroke-width:0.344"/>
 <path d="m 10.03 5.678 3.786 -0.621 1.074 4.815 -5.9 0.616" style="stroke-dasharray:none;fill:none;stroke-miterlimit:4;stroke:#de4646;stroke-linecap:round;stroke-linejoin:round;stroke-width:0.344"/>
 <path d="m 13.181 19.05 7.241 -10.748 -5.529 1.572" style="stroke-dasharray:none;fill:none;stroke-miterlimit:4;stroke:#de4646;stroke-linecap:round;stroke-linejoin:round;stroke-width:0.344"/>
 <path d="m 17.788 9.05 -4.607 9.999" style="stroke-dasharray:none;fill:none;stroke-miterlimit:4;stroke:#de4646;stroke-linecap:round;stroke-linejoin:round;stroke-width:0.172"/>
 <path d="m 11.816 10.202 1.364 8.845" style="stroke-dasharray:none;fill:none;stroke-miterlimit:4;stroke:#de4646;stroke-linecap:round;stroke-linejoin:round;stroke-width:0.172"/>
 <path d="m 6.573 10.507 6.607 8.54" style="stroke-dasharray:none;fill:none;stroke-miterlimit:4;stroke:#de4646;stroke-linecap:round;stroke-linejoin:round;stroke-width:0.172"/>
</svg>
